X:1
T:Lord Lovat's Lament
M:C
L:1/8
Q:80
C:
S:Slow Air
K:HP
{g}A3/2B/2 | \
{GdG}c2{GdG}ce{Gdc}dc{gBd}B{e}A | \
{g}c/2e3/2{G}e3/2f/2{gfg}f/2e3/2{g}f3/2g/2 |
{ag}a2{ef}ea{fg}fe{gcd}c{e}A | \
{gcd}c/2B3/2{GdG}B3/2c/2{gcd}c/2B3/2{g}A3/2B/2 | \
{GdG}c2{GdG}ce{Gdc}dc{gBd}B{e}A |
{g}c/2e3/2{G}e3/2f/2{gfg}f/2e3/2{gcd}c{e}A | \
{Gdc}d3/2e/2{g}fe/2d/2{g}c/2e3/2{Gdc}d3/2B/2 | \
{g}A2{GdGe}A3/2B/2{G}A2|]
{g}f3/2g/2 | \
{ag}a2{ef}ea{fg}fe{gcd}c{e}A | \
{g}c/2e3/2{G}e3/2f/2{gfg}f/2e3/2{g}f3/2g/2 |
{ag}a2{ef}ea{fg}fe{gcd}c{e}A | \
{gcd}c/2B3/2{GdG}B3/2c/2{gcd}c/2B3/2{g}A3/2B/2 | \
{GdG}c2{GdG}ce{Gdc}dc{gBd}B{e}A |
{g}c/2e3/2{G}e3/2f/2{gfg}f/2e3/2{gcd}c{e}A | \
{Gdc}d3/2e/2{g}fe/2d/2{g}c/2e3/2{Gdc}d3/2B/2 | \
{g}A2{GdGe}A3/2B/2{G}A2|]
